resources/haticons/SVG/dialpad.svg

<!-- Generated by IcoMoon.io -->
<svg version="1.1" xmlns="http://www.w3.org/2000/svg" width="24" height="24" viewBox="0 0 24 24">
<title>dialpad</title>
<path d="M12 0.984q0.797 0 1.406 0.609t0.609 1.406-0.609 1.406-1.406 0.609-1.406-0.609-0.609-1.406 0.609-1.406 1.406-0.609zM12 6.984q0.797 0 1.406 0.609t0.609 1.406-0.609 1.406-1.406 0.609-1.406-0.609-0.609-1.406 0.609-1.406 1.406-0.609zM18 6.984q0.797 0 1.406 0.609t0.609 1.406-0.609 1.406-1.406 0.609-1.406-0.609-0.609-1.406 0.609-1.406 1.406-0.609zM18 12.984q0.797 0 1.406 0.609t0.609 1.406-0.609 1.406-1.406 0.609-1.406-0.609-0.609-1.406 0.609-1.406 1.406-0.609zM12 12.984q0.797 0 1.406 0.609t0.609 1.406-0.609 1.406-1.406 0.609-1.406-0.609-0.609-1.406 0.609-1.406 1.406-0.609zM18 5.016q-0.797 0-1.406-0.609t-0.609-1.406 0.609-1.406 1.406-0.609 1.406 0.609 0.609 1.406-0.609 1.406-1.406 0.609zM6 12.984q0.797 0 1.406 0.609t0.609 1.406-0.609 1.406-1.406 0.609-1.406-0.609-0.609-1.406 0.609-1.406 1.406-0.609zM6 6.984q0.797 0 1.406 0.609t0.609 1.406-0.609 1.406-1.406 0.609-1.406-0.609-0.609-1.406 0.609-1.406 1.406-0.609zM6 0.984q0.797 0 1.406 0.609t0.609 1.406-0.609 1.406-1.406 0.609-1.406-0.609-0.609-1.406 0.609-1.406 1.406-0.609zM12 18.984q0.797 0 1.406 0.609t0.609 1.406-0.609 1.406-1.406 0.609-1.406-0.609-0.609-1.406 0.609-1.406 1.406-0.609z"></path>
</svg>

<svg xmlns="http://www.w3.org/2000/svg" width="24" height="24"><path d="M12 .984q.797 0 1.406.609t.609 1.406-.609 1.406T12 5.014t-1.406-.609-.609-1.406.609-1.406T12 .984zm0 6q.797 0 1.406.609t.609 1.406-.609 1.406-1.406.609-1.406-.609-.609-1.406.609-1.406T12 6.984zm6 0q.797 0 1.406.609t.609 1.406-.609 1.406-1.406.609-1.406-.609-.609-1.406.609-1.406T18 6.984zm0 6q.797 0 1.406.609t.609 1.406-.609 1.406-1.406.609-1.406-.609-.609-1.406.609-1.406T18 12.984zm-6 0q.797 0 1.406.609t.609 1.406-.609 1.406-1.406.609-1.406-.609-.609-1.406.609-1.406T12 12.984zm6-7.968q-.797 0-1.406-.609t-.609-1.406.609-1.406T18 .986t1.406.609.609 1.406-.609 1.406T18 5.016zM6 12.984q.797 0 1.406.609t.609 1.406-.609 1.406T6 17.014t-1.406-.609-.609-1.406.609-1.406T6 12.984zm0-6q.797 0 1.406.609t.609 1.406-.609 1.406T6 11.014t-1.406-.609-.609-1.406.609-1.406T6 6.984zm0-6q.797 0 1.406.609t.609 1.406-.609 1.406T6 5.014t-1.406-.609-.609-1.406.609-1.406T6 .984zm6 18q.797 0 1.406.609t.609 1.406-.609 1.406-1.406.609-1.406-.609-.609-1.406.609-1.406T12 18.984z"/></svg>
